packages/merlin-www-assets/imports/brides/icons/gallery-list.svg

<svg viewBox="0 0 20 20" xmlns="http://www.w3.org/2000/svg"><path d="m6 18.5h14v1h-14zm-6-.5h2v2h-2zm6-8.5h14v1h-14zm-6-.5h2v2h-2zm6-8.5h14v1h-14zm-6-.5h2v2h-2z"/></svg>

<svg xmlns="http://www.w3.org/2000/svg" viewBox="0 0 20 20"><title>list</title>
  <path d="M6,18.5 L20,18.5 L20,19.5 L6,19.5 L6,18.5 Z M0,18 L2,18 L2,20 L0,20 L0,18 Z M6,9.5 L20,9.5 L20,10.5 L6,10.5 L6,9.5 Z M0,9 L2,9 L2,11 L0,11 L0,9 Z M6,0.5 L20,0.5 L20,1.5 L6,1.5 L6,0.5 Z M0,0 L2,0 L2,2 L0,2 L0,0 Z"/>
</svg>
